assets/icons/notjunk/filled.svg

<?xml version="1.0" encoding="UTF-8" standalone="no"?>
<svg
   viewBox="0 0 24 24"
   height="24"
   width="24"
   version="1.1"
   id="svg8"
   sodipodi:docname="filled.svg"
   inkscape:version="1.2 (1:1.2.1+202207142221+cd75a1ee6d)"
   xmlns:inkscape="http://www.inkscape.org/namespaces/inkscape"
   xmlns:sodipodi="http://sodipodi.sourceforge.net/DTD/sodipodi-0.dtd"
   xmlns="http://www.w3.org/2000/svg"
   xmlns:svg="http://www.w3.org/2000/svg"
   xmlns:rdf="http://www.w3.org/1999/02/22-rdf-syntax-ns#"
   xmlns:cc="http://creativecommons.org/ns#"
   xmlns:dc="http://purl.org/dc/elements/1.1/">
  <metadata
     id="metadata14">
    <rdf:RDF>
      <cc:Work
         rdf:about="">
        <dc:format>image/svg+xml</dc:format>
        <dc:type
           rdf:resource="http://purl.org/dc/dcmitype/StillImage" />
      </cc:Work>
    </rdf:RDF>
  </metadata>
  <defs
     id="defs12" />
  <sodipodi:namedview
     pagecolor="#ffffff"
     bordercolor="#666666"
     borderopacity="1"
     objecttolerance="10"
     gridtolerance="10"
     guidetolerance="10"
     inkscape:pageopacity="0"
     inkscape:pageshadow="2"
     inkscape:window-width="1920"
     inkscape:window-height="1043"
     id="namedview10"
     showgrid="true"
     inkscape:zoom="19.445437"
     inkscape:cx="5.70828"
     inkscape:cy="13.165042"
     inkscape:window-x="0"
     inkscape:window-y="0"
     inkscape:window-maximized="1"
     inkscape:current-layer="svg8"
     inkscape:pagecheckerboard="0"
     inkscape:showpageshadow="2"
     inkscape:deskcolor="#d1d1d1">
    <inkscape:grid
       type="xygrid"
       id="grid839" />
    <inkscape:grid
       type="xygrid"
       id="grid841"
       dotted="true"
       spacingx="0.5"
       spacingy="0.5"
       empspacing="10" />
  </sodipodi:namedview>
  <path
     id="path859"
     style="color:#000000;fill:#808080;fill-opacity:1;-inkscape-stroke:none"
     d="M 2.3535156 1.6464844 L 1.6464844 2.3535156 L 4.5429688 5.25 L 2 7.7929688 L 2 16.207031 L 7.7929688 22 L 16.207031 22 L 18.75 19.457031 L 21.646484 22.353516 L 22.353516 21.646484 L 19.457031 18.75 L 12.847656 12.140625 L 11 10.292969 L 5.25 4.5429688 L 2.3535156 1.6464844 z M 7.7929688 2 L 7.6464844 2.1464844 L 5.9570312 3.8359375 L 11 8.8789062 L 11 6 L 13 6 L 13 10.878906 L 20.164062 18.042969 L 22 16.207031 L 22 7.7929688 L 16.207031 2 L 7.7929688 2 z M 11.109375 11.816406 L 12.681641 13.388672 L 12.599609 14 L 11.400391 14 L 11.109375 11.816406 z M 12 16 A 1 1 0 0 1 13 17 A 1 1 0 0 1 12 18 A 1 1 0 0 1 11 17 A 1 1 0 0 1 12 16 z " />
</svg>

<svg height="24" width="24" xmlns="http://www.w3.org/2000/svg"><path style="color:#000;fill:gray;fill-opacity:1;-inkscape-stroke:none" d="m2.354 1.646-.708.708L4.543 5.25 2 7.793v8.414L7.793 22h8.414l2.543-2.543 2.896 2.897.708-.708-2.897-2.896-6.61-6.61L11 10.294l-5.75-5.75-2.896-2.897zM7.793 2l-.147.146-1.689 1.69L11 8.879V6h2v4.879l7.164 7.164L22 16.207V7.793L16.207 2H7.793zm3.316 9.816 1.573 1.573L12.6 14h-1.2l-.29-2.184zM12 16a1 1 0 0 1 1 1 1 1 0 0 1-1 1 1 1 0 0 1-1-1 1 1 0 0 1 1-1z"/></svg>
